!!!COM: Palestrina, Giovanni Perluigi da
!!!OPR: Regina coeli (1600)
!!!OTL: Kyrie
**kern	**kern	**kern	**kern	**kern
*Ibass	*Itenor	*Itenor	*Icalto	*Icant
!Bassus	!Tenor 2	!Tenor 1	!Altus	!Cantus
*clefF4	*clefGv2	*clefGv2	*clefG2	*clefG2
*k[b-]	*k[b-]	*k[b-]	*k[b-]	*k[b-]
*F:ion	*F:ion	*F:ion	*F:ion	*F:ion
*M4/2	*M4/2	*M4/2	*M4/2	*M4/2
=1	=1	=1	=1	=1
0r	0r	0r	1f	1r
.	.	.	2d	1f
.	.	.	2d	.
=2	=2	=2	=2	=2
0r	0r	1r	4c	1g
.	.	.	4d	.
.	.	.	4e	.
.	.	.	4c	.
.	.	1B-	4d	1f
.	.	.	4e	.
.	.	.	[2f	.
=3	=3	=3	=3	=3
0r	1B-	2G	2f]	1g
.	.	2G	2e	.
.	1c	4F	1f	2a
.	.	4G	.	.
.	.	4A	.	2a
.	.	4F	.	.
=4	=4	=4	=4	=4
1r	1B-	4G	2.d	2b-
.	.	4A	.	.
.	.	1B-	.	2dd
.	.	.	4e	.
1F	1c	.	1f	1cc
.	.	2A	.	.
=5	=5	=5	=5	=5
2D	1d	2B-	2r	2f
2D	.	2A	2f	1ff
4C	2r	1c	1g	.
4D	.	.	.	.
4E	2c	.	.	2ee
4C	.	.	.	.
=6	=6	=6	=6	=6
4D	2A	1F	1f	1ff
4E	.	.	.	.
1F	2A	.	.	.
.	1G	1c	1g	1r
2E	.	.	.	.
=7	=7	=7	=7	=7
1F	1c	1r	1a	2r
.	.	.	.	2ff
1BB-	2r	1B-	1b-	2dd
.	[2f	.	.	2dd
=8	=8	=8	=8	=8
0r	2f]	1c	2a	4cc
.	.	.	.	4dd
.	2e	.	2g	4ee
.	.	.	.	4cc
.	2f	1B-	2b-	4dd
.	.	.	.	4ee
.	2d	.	2f	[2ff
=9	=9	=9	=9	=9
1r	1g	1c	2r	2ff]
.	.	.	2cc	2ee
2r	1f	2d	2a	1ff
2F	.	2f	2a	.
=10	=10	=10	=10	=10
1G	1r	2e	4g	0r
.	.	.	4a	.
.	.	2d	4b-	.
.	.	.	4g	.
1F	2r	2f	4a	.
.	.	.	4b-	.
.	2f	2a	[2cc	.
=11	=11	=11	=11	=11
1G	2d	2.g	2cc]	0r
.	2d	.	2b-	.
.	.	4f	.	.
1A	4c	1e	4cc	.
.	4d	.	4b-	.
.	4e	.	4a	.
.	4c	.	4g	.
=12	=12	=12	=12	=12
1B-	4d	2r	1f	0r
.	4e	.	.	.
.	2.f	2d	.	.
2A	.	2c	1r	.
.	4e	.	.	.
2G	[2g	2B-	.	.
=13	=13	=13	=13	=13
2B-	4g]	2d	0r	1r
.	4f	.	.	.
2A	1f	2c	.	.
1G	.	1B-	.	2r
.	2e	.	.	[2b-
=14	=14	=14	=14	=14
1F	1f	1c	2r	2b-]
.	.	.	2f	2a
1r	1r	1r	2e	2g
.	.	.	2d	2b-
=15	=15	=15	=15	=15
0r	1r	2r	2f	2a
.	.	2c	2e	4g
.	.	.	.	4a
.	2r	2B-	2d	4b-
.	.	.	.	4g
.	2f	2A	2a	[2cc
=16	=16	=16	=16	=16
0r	2e	2c	4g	4cc]
.	.	.	4e	4a
.	2d	2B-	4f	2.dd
.	.	.	4g	.
.	4f	1A	2a	.
.	4e	.	.	4cc
.	4d	.	2f	[2cc
.	4c	.	.	.
=17	=17	=17	=17	=17
1r	2d	1G	1g	2cc]
.	2g	.	.	2b
2r	2f	1A	2.c	1cc
2c	2e	.	.	.
.	.	.	4e	.
=18	=18	=18	=18	=18
2B-	2g	2r	2d	0r
2A	2a	2f	2c	.
2c	1g	2e	2r	.
2B-	.	2d	2g	.
=19	=19	=19	=19	=19
2.A	1c	2f	2a	0r
.	.	2e	2.a	.
4G	.	.	.	.
2F	2d	2d	.	.
.	.	.	4f	.
2E	2e	[2c	2g	.
=20	=20	=20	=20	=20
1D	2.f	2c]	2a	2r
.	.	2B	2f	1ff
.	4g	.	.	.
1C	2a	1c	2r	.
.	2g	.	2cc	2ee
=21	=21	=21	=21	=21
2r	0r	2G	2b-	2dd
2D	.	2d	2g	2ff
2A	.	2c	2cc	2ee
2B-	.	[2f	2b-	[2dd
=22	=22	=22	=22	=22
1F	2r	4f]	1a	4dd]
.	.	4e	.	4cc
.	2f	4c	.	1cc
.	.	4d	.	.
1G	2e	4e	1g	.
.	.	4f	.	.
.	2d	2g	.	2b-
=23	=23	=23	=23	=23
2F	2f	1c	2r	2a
2C	2e	.	2cc	2g
1D	2.d	2r	2b-	1f
.	.	2f	2a	.
.	4c	.	.	.
=24	=24	=24	=24	=24
2E-	2B-	2e-	2g	2g
2F	2A	2c	1f	2.cc
1C	1G	1c	.	.
.	.	.	.	4b-
.	.	.	2e	2g
=25	=25	=25	=25	=25
0F	0F	0c	0f	0a
=26	=26	=26	=26	=26
0r	0r	0r	1f	1r
.	.	.	2.cc	1f
.	.	.	4b-	.
=27	=27	=27	=27	=27
0r	0r	1r	4a	2.cc
.	.	.	4g	.
.	.	.	2a	.
.	.	.	.	4b-
.	.	1F	2f	4a
.	.	.	.	4g
.	.	.	[2f	[2a
=28	=28	=28	=28	=28
0r	0r	1c	2f]	2a]
.	.	.	4e	4g
.	.	.	4d	4f
.	.	1c	1e	2g
.	.	.	.	[2a
=29	=29	=29	=29	=29
0r	0r	1d	2.f	4a]
.	.	.	.	4f
.	.	.	.	2.b-
.	.	.	4d	.
.	.	2c	2e	.
.	.	.	.	4a
.	.	2A	2f	[2a
=30	=30	=30	=30	=30
1r	0r	1B-	1d	2a]
.	.	.	.	2g
1F	.	2A	1c	[1a
.	.	4F	.	.
.	.	4G	.	.
=31	=31	=31	=31	=31
2.c	1F	4A	2r	0a]
.	.	4B-	.	.
.	.	4c	2.cc	.
4B-	.	4d	.	.
4A	1c	1e	.	.
4G	.	.	4b-	.
2A	.	.	4a	.
.	.	.	4g	.
=32	=32	=32	=32	=32
1.F	1c	0f	1.a	0r
.	1d	.	.	.
4E	.	.	4g	.
4D	.	.	4f	.
=33	=33	=33	=33	=33
2E	2c	2r	2g	0r
2F	2A	2.f	1a	.
1G	1B-	.	.	.
.	.	8e	.	.
.	.	8d	.	.
.	.	2e	2g	.
=34	=34	=34	=34	=34
1F	2A	2f	2a	1f
.	1f	2d	1a	.
1r	.	[1c	.	1cc
.	4e	.	4g	.
.	4d	.	4f	.
=35	=35	=35	=35	=35
0r	2e	2c]	2g	1cc
.	2f	2A	2a	.
.	2d	1B-	2f	1dd
.	2B-	.	[2g	.
=36	=36	=36	=36	=36
0r	2c	2A	4g]	2cc
.	.	.	4f	.
.	2d	2F	1f	2a
.	1B-	1G	.	1b-
.	.	.	2e	.
=37	=37	=37	=37	=37
1r	2c	2.F	1f	0a
.	1f	.	.	.
.	.	4G	.	.
2r	.	1A	1c	.
[2c	4e	.	.	.
.	4d	.	.	.
=38	=38	=38	=38	=38
2c]	2e	1G	1g	1r
4B	4d	.	.	.
4A	4c	.	.	.
2B	2d	1r	1g	2r
2c	2e	.	.	[2cc
=39	=39	=39	=39	=39
1F	2.f	0r	1a	2cc]
.	.	.	.	4b-
.	4e	.	.	4a
2G	2d	.	2g	2b-
2A	2c	.	2e	2cc
=40	=40	=40	=40	=40
4D	1d	2r	4f	1.a
4E	.	.	4g	.
4F	.	1f	4a	.
4G	.	.	4b-	.
4A	[1c	.	[1cc	.
4B-	.	.	.	.
[2c	.	4e	.	4g
.	.	4d	.	4f
=41	=41	=41	=41	=41
2c]	1c]	2e	2cc]	2g
2F	.	2f	2a	1cc
1G	2r	1d	2.g	.
.	[2g	.	.	2b
.	.	.	4f	.
=42	=42	=42	=42	=42
1C	2g]	2c	4e	0cc
.	.	.	4c	.
.	2e	1c	2g	.
2r	2g	.	1c	.
[2F	[2a	2A	.	.
=43	=43	=43	=43	=43
2F]	4a]	2c	2r	0r
.	4g	.	.	.
2D	4f	2.d	1f	.
.	4e	.	.	.
2F	1d	.	.	.
.	.	4c	.	.
2G	.	2B-	2d	.
=44	=44	=44	=44	=44
1C	4c	4A	2e	0r
.	4B-	4G	.	.
.	4A	2.c	2.a	.
.	4G	.	.	.
1D	1F	.	.	.
.	.	8B-	4g	.
.	.	8A	.	.
.	.	2B-	[2f	.
=45	=45	=45	=45	=45
1C	2.G	1c	2f]	1r
.	.	.	2e	.
.	4A	.	.	.
1r	4B-	[1G	2d	2r
.	4A	.	.	.
.	4B-	.	4G	[2b-
.	4c	.	4A	.
=46	=46	=46	=46	=46
0r	2d	1G]	4B-	2b-]
.	.	.	4c	.
.	2B-	.	4d	2g
.	.	.	4e	.
.	2B-	1r	4f	2b-
.	.	.	4g	.
.	2A	.	[2a	2cc
=47	=47	=47	=47	=47
0r	1d	1r	4a]	1f
.	.	.	4g	.
.	.	.	1f	.
.	1c	2r	.	1g
.	.	[2c	2e	.
=48	=48	=48	=48	=48
1r	0F	2c]	2.f	2a
.	.	2A	.	1cc
.	.	.	4g	.
2r	.	2c	1a	.
[2F	.	2d	.	2a
=49	=49	=49	=49	=49
2F]	2r	2c	1f	2cc
2D	1f	2B-	.	2dd
2F	.	2A	1r	2cc
2G	2d	2d	.	2b-
=50	=50	=50	=50	=50
1C	1e	4c	2r	4a
.	.	4B-	.	4g
.	.	4A	2.c	4cc
.	.	4G	.	4b-
1D	1f	1F	.	4a
.	.	.	4B-	4g
.	.	.	2B-	[2f
=51	=51	=51	=51	=51
1C	2r	1G	2c	2f]
.	1c	.	2g	2e
[1F	.	2F	1a	2.f
.	2A	2c	.	.
.	.	.	.	4g
=52	=52	=52	=52	=52
1F]	2c	1.A	2.f	2.a
.	2d	.	.	.
.	.	.	4g	4b-
[1F	4c	.	[1a	[1cc
.	4B-	.	.	.
.	4A	2F	.	.
.	4G	.	.	.
=53	=53	=53	=53	=53
1F]	2F	2.A	1a]	1cc]
.	1f	.	.	.
.	.	4B-	.	.
[1C	.	[1c	[1g	[1cc
.	4e	.	.	.
.	4d	.	.	.
=54	=54	=54	=54	=54
0C]	0e	0c]	0g]	0cc]
=55	=55	=55	=55	=55
0r	0r	0r	2r	1ff
.	.	.	1b-	.
.	.	.	.	2.dd
.	.	.	[2g	.
.	.	.	.	4cc
=56	=56	=56	=56	=56
0r	0r	1r	4g]	2dd
.	.	.	4f	.
.	.	.	2g	2ee
.	.	1f	1a	2cc
.	.	.	.	[2ff
=57	=57	=57	=57	=57
0r	0r	2.d	2f	4ff]
.	.	.	.	4ee
.	.	.	2b-	1dd
.	.	4c	.	.
.	.	2d	2a	.
.	.	2e	[2g	[2cc
=58	=58	=58	=58	=58
0r	0r	2c	2g]	4cc]
.	.	.	.	4b-
.	.	2d	1f	2a
.	.	2B-	.	1g
.	.	2c	2e	.
=59	=59	=59	=59	=59
1r	2r	0d	2f	0f
.	1f	.	4B-	.
.	.	.	4c	.
1B-	.	.	4d	.
.	.	.	4e	.
.	[2d	.	2f	.
=60	=60	=60	=60	=60
2.G	4d]	2r	1g	2.b-
.	4c	.	.	.
.	2d	2.g	.	.
4F	.	.	.	4a
2G	2e	.	1r	2g
.	.	4f	.	.
2A	2c	2e	.	2cc
=61	=61	=61	=61	=61
2F	2.f	4d	0r	2a
.	.	4c	.	.
1B-	.	2d	.	2b-
.	4e	.	.	.
.	2d	2B-	.	1f
2A	2c	2c	.	.
=62	=62	=62	=62	=62
2G	2B-	1d	2r	0r
1F	2A	.	2f	.
.	1G	2r	2g	.
2E	.	2G	2b-	.
=63	=63	=63	=63	=63
1F	1F	2A	2.a	1ff
.	.	2c	.	.
.	.	.	4f	.
1r	1r	2.B-	4g	2.dd
.	.	.	4f	.
.	.	.	[2b-	.
.	.	4A	.	4cc
=64	=64	=64	=64	=64
0r	1r	2B-	2b-]	2dd
.	.	2c	4a	2ee
.	.	.	4g	.
.	1f	1F	1a	2cc
.	.	.	.	[2ff
=65	=65	=65	=65	=65
0r	2.d	2.B-	2f	4ff]
.	.	.	.	4ee
.	.	.	1b-	1dd
.	4c	4A	.	.
.	2d	2G	.	.
.	2e	2c	2g	[2cc
=66	=66	=66	=66	=66
0r	2c	2A	1a	4cc]
.	.	.	.	4b-
.	2.f	2F	.	1a
.	.	1B-	1d	.
.	4e	.	.	.
.	[2d	.	.	2g
=67	=67	=67	=67	=67
0r	4d]	2A	2e	1a
.	4c	.	.	.
.	1c	2F	2f	.
.	.	1G	1d	1g
.	2B	.	.	.
=68	=68	=68	=68	=68
2r	2c	0c	2e	0r
2F	2.f	.	2.a	.
2.A	.	.	.	.
.	4e	.	4g	.
.	2a	.	2f	.
4B-	.	.	.	.
=69	=69	=69	=69	=69
2c	2g	0r	2e	2r
1d	1f	.	4d	2f
.	.	.	4e	.
.	.	.	4f	2.a
.	.	.	4g	.
4c	4e	.	[2a	.
4B-	4d	.	.	4b-
=70	=70	=70	=70	=70
2A	2e	0r	4a]	2cc
.	.	.	4g	.
1B-	2d	.	4f	1dd
.	.	.	4e	.
.	1f	.	2d	.
2A	.	.	[2f	2cc
=71	=71	=71	=71	=71
1G	1g	1r	2f]	2b-
.	.	.	2e	2g
[1F	[1c	2r	1f	1a
.	.	2F	.	.
=72	=72	=72	=72	=72
1F]	1c]	2.A	2r	1.cc
.	.	.	2c	.
.	.	4B-	.	.
1r	1r	2c	2e	.
.	.	[2d	[2f	2b-
=73	=73	=73	=73	=73
0r	0r	4d]	4f]	1a
.	.	4c	4e	.
.	.	2A	2c	.
.	.	2B-	2d	1f
.	.	2d	[2f	.
=74	=74	=74	=74	=74
2r	1r	1c	2f]	1g
2C	.	.	2e	.
2.D	2r	1A	2f	[1f
.	2F	.	2d	.
4E	.	.	.	.
=75	=75	=75	=75	=75
1F	2.A	2r	2c	1f]
.	.	2F	2.cc	.
.	4B-	.	.	.
2E	2c	2G	.	1r
.	.	.	4b-	.
2F	[2d	2A	2a	.
=76	=76	=76	=76	=76
2G	2d]	2B-	2g	0r
2A	2c	2c	2f	.
1G	2B-	2d	1g	.
.	2G	2e	.	.
=77	=77	=77	=77	=77
1F	1A	1f	2c	2r
.	.	.	2.cc	2f
2r	[1c	1F	.	2.a
.	.	.	4b-	.
[2F	.	.	[2a	.
.	.	.	.	4b-
=78	=78	=78	=78	=78
2F]	2c]	2A	2a]	2cc
2BB-	2B-	2B-	2f	2dd
1F	1A	1c	2f	2cc
.	.	.	[2a	2f
=79	=79	=79	=79	=79
2D	1F	2d	4a]	2.a
.	.	.	4g	.
2F	.	2c	1f	.
.	.	.	.	4b-
1C	1G	1c	.	1cc
.	.	.	2e	.
=80	=80	=80	=80	=80
0F	0F	0c	0f	0a
==	==	==	==	==
*-	*-	*-	*-	*-
!!!CDT: 1525/^1526/-1594/2/2
!!!OCY: Italia
!!!AGN: Mass (Paraphrase)
!!!AST: renaissance, vocal
!!!ASW: Antiphon
!!!PWK: Masses, Book 11
!!!RNB: Cadence finals: C
!!!YOR: Le Opere Complete, v. 28, p. 32
!!!YOO: Rome, Italy: Fratelli Scalera
!!!END: 1992//
!!!EED: John Miller
!!!YEC: Copyright 2000, John Miller
!!!YEN: United States of America
!!!YEM: Rights to all derivative electronic formats reserved.
!!!YEM: Refer to licensing agreement for further details.
!!!YEM: This file must be accompanied by the licensing agreement.
!!!YEM: A copy of the licensing agreement may be found at http://www.music-cog.ohio-state.edu/HumdrumDatabases/Palestrina/license.txt
!!!EMD: converted to Humdrum by Bret Aarden
